packages/astro-components-stencil/src/icons/speaker-notes.svg

<svg xmlns="http://www.w3.org/2000/svg" viewBox="0 0 24 24"><g xmlns="http://www.w3.org/2000/svg" id="speaker-notes" fill-rule="nonzero">
            <path d="M20 2H4c-1.1 0-1.99.9-1.99 2L2 22l4-4h14c1.1 0 2-.9 2-2V4c0-1.1-.9-2-2-2zM8 14H6v-2h2v2zm0-3H6V9h2v2zm0-3H6V6h2v2zm6 6h-3c-.55 0-1-.45-1-1s.45-1 1-1h3c.55 0 1 .45 1 1s-.45 1-1 1zm3-3h-6c-.55 0-1-.45-1-1s.45-1 1-1h6c.55 0 1 .45 1 1s-.45 1-1 1zm0-3h-6c-.55 0-1-.45-1-1s.45-1 1-1h6c.55 0 1 .45 1 1s-.45 1-1 1z"/>
        </g></svg>

<svg width="24" height="24" viewBox="0 0 24 24" fill="none" xmlns="http://www.w3.org/2000/svg">
<path fill-rule="evenodd" clip-rule="evenodd" d="M20 2H4C2.9 2 2.01 2.9 2.01 4L2 22L6 18H20C21.1 18 22 17.1 22 16V4C22 2.9 21.1 2 20 2ZM8 14H6V12H8V14ZM6 11H8V9H6V11ZM8 8H6V6H8V8ZM11 14H14C14.55 14 15 13.55 15 13C15 12.45 14.55 12 14 12H11C10.45 12 10 12.45 10 13C10 13.55 10.45 14 11 14ZM17 11H11C10.45 11 10 10.55 10 10C10 9.45 10.45 9 11 9H17C17.55 9 18 9.45 18 10C18 10.55 17.55 11 17 11ZM11 8H17C17.55 8 18 7.55 18 7C18 6.45 17.55 6 17 6H11C10.45 6 10 6.45 10 7C10 7.55 10.45 8 11 8Z" fill="black"/>
</svg>
